X: 178
T: Shibugu gege li difang
L: 1/8
M: 2/4
K: C
e2e e [I:setbarnb 1]| 
g2c c | 
d c A c | 
d4 | 
ec2c | 
d3A | 
G A G E | 
G4 |]

@@@ Tune index: 9052
